static/img/logo-tool-pipe.svg

<svg width="147" height="152" viewBox="0 0 147 152" fill="none" xmlns="http://www.w3.org/2000/svg">
<ellipse cx="73.5" cy="73.7629" rx="73.5" ry="73.7629" fill="#FFC121"/>
<path d="M41.5305 107.323L64.9459 104.02L70.6916 145.05C70.9715 147.049 69.5784 148.897 67.5799 149.179L51.4016 151.461C49.4031 151.743 47.5562 150.351 47.2763 148.352L41.5305 107.323Z" fill="#FFFDF8"/>
<rect width="23.7284" height="36.653" transform="matrix(0.138687 0.990336 -0.990199 0.139661 97.9492 75.4023)" fill="#FFFDF8"/>
<rect width="23.7284" height="36.653" transform="matrix(0.138687 0.990336 -0.990199 0.139661 91.0383 26.0543)" fill="#FFFDF8"/>
<rect width="23.6471" height="26.1013" transform="matrix(-0.990199 0.139661 -0.138687 -0.990336 121.365 72.0997)" fill="#FFFDF8"/>
<path d="M41.5308 107.323C39.7196 94.3893 48.7234 82.3453 61.6553 80.5213L64.9462 104.02L41.5308 107.323Z" fill="#FFFDF8"/>
<path d="M121.364 72.0998C123.176 85.0335 114.172 97.0775 101.24 98.9015L97.9491 75.4024L121.364 72.0998Z" fill="#FFFDF8"/>
<path d="M91.0385 26.0542C103.97 24.2303 115.933 33.317 117.745 46.2508L94.3293 49.5533L91.0385 26.0542Z" fill="#FFFDF8"/>
<path d="M58.0352 54.6723C45.1033 56.4963 33.1403 47.4095 31.3291 34.4758L54.7444 31.1732L58.0352 54.6723Z" fill="#FFFDF8"/>
<path fill-rule="evenodd" clip-rule="evenodd" d="M97.948 75.4015L97.4562 71.8889C97.7278 73.8288 96.3756 75.6232 94.436 75.8968L97.948 75.4015Z" fill="#FFFDF8"/>
<path fill-rule="evenodd" clip-rule="evenodd" d="M68.4585 103.525L64.9463 104.02L65.4382 107.533C65.1665 105.593 66.5188 103.799 68.4585 103.525Z" fill="#FFFDF8"/>
<path fill-rule="evenodd" clip-rule="evenodd" d="M94.3293 49.5533L90.8172 50.0487C92.7569 49.7751 94.5495 51.126 94.8212 53.0659L94.3293 49.5533Z" fill="#FFFDF8"/>
<rect width="5.91178" height="28.4741" rx="1.18227" transform="matrix(0.990199 -0.139661 0.138687 0.990336 75.4895 25.851)" fill="#FFFDF8"/>
<rect width="5.93211" height="28.3765" rx="1.18227" transform="matrix(0.138687 0.990336 -0.990199 0.139661 121.403 55.3202)" fill="#FFFDF8"/>
</svg>

<svg xmlns="http://www.w3.org/2000/svg" fill="none" viewBox="0 0 147 152"><ellipse cx="73.5" cy="73.763" fill="#FFC121" rx="73.5" ry="73.763"/><path fill="#FFFDF8" d="m41.53 107.323 23.416-3.303 5.746 41.03a3.658 3.658 0 0 1-3.112 4.129l-16.178 2.282a3.65 3.65 0 0 1-4.126-3.109l-5.745-41.029ZM97.95 75.402l3.29 23.499-36.294 5.119-3.29-23.499zM91.038 26.054l3.291 23.499-36.294 5.119-3.29-23.499zM121.365 72.1 97.95 75.402l-3.62-25.848 23.415-3.303z"/><path fill="#FFFDF8" d="M41.53 107.323c-1.81-12.934 7.193-24.978 20.125-26.802l3.291 23.499-23.415 3.303ZM121.364 72.1c1.812 12.934-7.192 24.978-20.124 26.802l-3.29-23.5 23.414-3.302ZM91.038 26.054c12.932-1.824 24.895 7.263 26.707 20.197l-23.416 3.302-3.29-23.499ZM58.035 54.672C45.103 56.496 33.14 47.41 31.33 34.476l23.415-3.303 3.291 23.5Z"/><path fill="#FFFDF8" fill-rule="evenodd" d="m97.948 75.401-.492-3.512a3.551 3.551 0 0 1-3.02 4.008l3.512-.496ZM68.459 103.525l-3.513.495.492 3.513a3.551 3.551 0 0 1 3.02-4.008ZM94.33 49.553l-3.513.496a3.543 3.543 0 0 1 4.004 3.017l-.492-3.513Z" clip-rule="evenodd"/><rect width="5.912" height="28.474" fill="#FFFDF8" rx="1.182" transform="rotate(-8.028 221.937 -524.945) skewX(-.056)"/><rect width="5.932" height="28.377" fill="#FFFDF8" rx="1.182" transform="rotate(82.028 28.898 97.455) skewX(.056)"/></svg>
